X: 1601
T: Anna Foxe
R: hornpipe
M: 4/4
K: Dmajor
de|:f2a2 d2cA|BdcB A2Bc|d2cd e2de|ffaf e2dc|cBcd A2cd|
e2ag gfed|1 B2cd e2fg|a4 baba:|2 B2g2 fedc|d6 c2||
|:B2cd dcBA|G2fe e2cA|FAce GBdf|B2gf fedc|
dcdf A2gf|eaga f2ed|B2g2 fedc|1 d6 c2:|2 d6||

